usr/share/icons/biglinux-icons-material-dark/symbolic/actions/gnumeric-pivottable.svg

<svg xmlns="http://www.w3.org/2000/svg" viewBox="0 0 16 16">
  <defs id="defs3051">
    <style type="text/css" id="current-color-scheme">
      .ColorScheme-Text {
        color:#dedede;
      }
      </style>
  </defs>
 <path style="fill:currentColor;fill-opacity:1;stroke:none" 
       d="M 2 2 L 2 14 L 14 14 L 14 13 L 14 2 L 2 2 z M 8.6875 2.5 L 10.34375 3.59375 L 12 2.5 L 12.6875 2.9375 L 10.6875 4.25 L 10.34375 4.5 L 10 4.25 L 8 2.9375 L 8.6875 2.5 z M 3 5 L 13 5 L 13 13 L 3 13 L 3 5 z M 4 6 L 4 12 L 7 12 L 7 6 L 4 6 z M 8 7 L 8 8 L 12 8 L 12 7 L 8 7 z M 8 10 L 8 11 L 12 11 L 12 10 L 8 10 z "
     class="ColorScheme-Text"
     />
</svg>

<svg xmlns="http://www.w3.org/2000/svg" viewBox="0 0 16 16">
<defs id="defs3051">
<style id="current-color-scheme" type="text/css">
.ColorScheme-Contrast{color:#dedede}
</style>
</defs>
<path d="M2 2v12h12V2zm6.688.5 1.656 1.094L12 2.5l.688.438-2 1.312-.344.25L10 4.25 8 2.938zM3 5h10v8H3zm1 1v6h3V6zm4 1v1h4V7zm0 3v1h4v-1z" class="ColorScheme-Contrast" style="fill:currentColor;fill-opacity:1;stroke:none"/>
</svg>
